!!!SOCIAL_FUNCTION:	social gatherings
!!!PDT:	1939
!!!OTL: No__83_"I_Am_Trying_to_Look_as_Pretty_as_I_Can".krn
!!!LANG: Non-Tone
!!!LING_GROUP: Wakashan
!!!REG: Pacific Northwest
**kern
*staff1
=1-
=
*clefF4
*k[b-e-]
*M2/4
2d\
=2
8d\L
8c\J
8B-\L
8G\J
=3
4G\
8r
16B-\LL
16G\JJ
=4
4B-\
4B-\
=5
8d\L
8c\J
8B-\L
8G\J
=6
8G\
8r
8.G\L
16B-\Jk
=7
4G\
4G\
=8
4G\
8r
8G\
=9
4G\
8r
16B-\LL
16G\JJ
=10
4B-\
4B-\
=11
8d\L
8c\J
8B-\L
8G\J
=12
8G\
8r
8.G\L
16B-\Jk
=13
4G\
4G\
=14
4G\
8r
8B-\
=15
4G\
8B-\
8r
=16:|!
4G\
4G\
=17
4G\
4r
==
*-
